src/Assets/Orbitron.svg

<svg width="72" height="13" viewBox="0 0 72 13" fill="none" xmlns="http://www.w3.org/2000/svg">
<path d="M2.73713 13C2.38513 13 2.05979 12.9147 1.76113 12.744C1.47313 12.5733 1.24379 12.344 1.07313 12.056C0.902458 11.7573 0.817125 11.432 0.817125 11.08V3.4C0.817125 3.048 0.902458 2.728 1.07313 2.44C1.24379 2.14133 1.47313 1.90667 1.76113 1.736C2.05979 1.56533 2.38513 1.48 2.73713 1.48H10.4171C10.7691 1.48 11.0891 1.56533 11.3771 1.736C11.6758 1.90667 11.9105 2.14133 12.0811 2.44C12.2518 2.728 12.3371 3.048 12.3371 3.4V11.08C12.3371 11.432 12.2518 11.7573 12.0811 12.056C11.9105 12.344 11.6758 12.5733 11.3771 12.744C11.0891 12.9147 10.7691 13 10.4171 13H2.73713ZM2.73713 11.704H10.4171C10.5878 11.704 10.7318 11.6453 10.8491 11.528C10.9771 11.4 11.0411 11.2507 11.0411 11.08V3.4C11.0411 3.22933 10.9771 3.08533 10.8491 2.968C10.7318 2.84 10.5878 2.776 10.4171 2.776H2.73713C2.56646 2.776 2.41713 2.84 2.28913 2.968C2.17179 3.08533 2.11313 3.22933 2.11313 3.4V11.08C2.11313 11.2507 2.17179 11.4 2.28913 11.528C2.41713 11.6453 2.56646 11.704 2.73713 11.704ZM14.0351 13V5.656C14.0351 5.304 14.1205 4.984 14.2911 4.696C14.4725 4.39733 14.7071 4.16267 14.9951 3.992C15.2938 3.81067 15.6191 3.72 15.9711 3.72H21.1871V5.032H15.9711C15.8005 5.032 15.6511 5.096 15.5231 5.224C15.4058 5.34133 15.3471 5.48533 15.3471 5.656V13H14.0351ZM22.2546 13V0.679999H23.5666V3.72H29.7746C30.1266 3.72 30.4466 3.81067 30.7346 3.992C31.0333 4.16267 31.268 4.39733 31.4386 4.696C31.62 4.984 31.7106 5.304 31.7106 5.656V11.064C31.7106 11.416 31.62 11.7413 31.4386 12.04C31.268 12.328 31.0333 12.5627 30.7346 12.744C30.4466 12.9147 30.1266 13 29.7746 13H22.2546ZM24.2066 11.688H29.7746C29.9453 11.688 30.0893 11.6293 30.2066 11.512C30.3346 11.384 30.3986 11.2347 30.3986 11.064V5.656C30.3986 5.48533 30.3346 5.34133 30.2066 5.224C30.0893 5.096 29.9453 5.032 29.7746 5.032H24.2066C24.036 5.032 23.8866 5.096 23.7586 5.224C23.6306 5.34133 23.5666 5.48533 23.5666 5.656V11.064C23.5666 11.2347 23.6306 11.384 23.7586 11.512C23.8866 11.6293 24.036 11.688 24.2066 11.688ZM32.8945 13V3.72H34.2065V13H32.8945ZM32.8945 1.992V0.679999H34.2065V1.992H32.8945ZM38.1746 13C37.812 13 37.4813 12.9147 37.1826 12.744C36.8946 12.5627 36.6653 12.328 36.4946 12.04C36.324 11.7413 36.2386 11.416 36.2386 11.064V0.679999H37.5506V3.72H41.5666V5.032H37.5506V11.064C37.5506 11.2347 37.6093 11.384 37.7266 11.512C37.8546 11.6293 38.004 11.688 38.1746 11.688H41.5666V13H38.1746ZM42.7851 13V5.656C42.7851 5.304 42.8705 4.984 43.0411 4.696C43.2225 4.39733 43.4571 4.16267 43.7451 3.992C44.0438 3.81067 44.3691 3.72 44.7211 3.72H49.9371V5.032H44.7211C44.5505 5.032 44.4011 5.096 44.2731 5.224C44.1558 5.34133 44.0971 5.48533 44.0971 5.656V13H42.7851ZM52.8145 13C52.4625 13 52.1372 12.9147 51.8385 12.744C51.5505 12.5627 51.3158 12.328 51.1345 12.04C50.9638 11.7413 50.8785 11.416 50.8785 11.064V5.656C50.8785 5.304 50.9638 4.984 51.1345 4.696C51.3158 4.39733 51.5505 4.16267 51.8385 3.992C52.1372 3.81067 52.4625 3.72 52.8145 3.72H58.3825C58.7452 3.72 59.0705 3.81067 59.3585 3.992C59.6572 4.16267 59.8918 4.39733 60.0625 4.696C60.2438 4.984 60.3345 5.304 60.3345 5.656V11.064C60.3345 11.416 60.2438 11.7413 60.0625 12.04C59.8918 12.328 59.6572 12.5627 59.3585 12.744C59.0705 12.9147 58.7452 13 58.3825 13H52.8145ZM52.8145 11.688H58.3825C58.5532 11.688 58.6972 11.6293 58.8145 11.512C58.9425 11.384 59.0065 11.2347 59.0065 11.064V5.656C59.0065 5.48533 58.9425 5.34133 58.8145 5.224C58.6972 5.096 58.5532 5.032 58.3825 5.032H52.8145C52.6438 5.032 52.4945 5.096 52.3665 5.224C52.2492 5.34133 52.1905 5.48533 52.1905 5.656V11.064C52.1905 11.2347 52.2492 11.384 52.3665 11.512C52.4945 11.6293 52.6438 11.688 52.8145 11.688ZM61.7703 13V3.72H69.2903C69.6423 3.72 69.9623 3.81067 70.2503 3.992C70.5489 4.16267 70.7836 4.39733 70.9543 4.696C71.1356 4.984 71.2263 5.304 71.2263 5.656V13H69.9143V5.656C69.9143 5.48533 69.8503 5.34133 69.7222 5.224C69.6049 5.096 69.4609 5.032 69.2903 5.032H63.7223C63.5516 5.032 63.4023 5.096 63.2743 5.224C63.1463 5.34133 63.0823 5.48533 63.0823 5.656V13H61.7703Z" fill="#D2D2D2"/>
</svg>

<svg xmlns="http://www.w3.org/2000/svg" fill="none" width="72" height="13" viewBox="0 0 72 13"><path d="M2.737 13c-.352 0-.677-.085-.976-.256a1.93 1.93 0 0 1-.688-.688 1.933 1.933 0 0 1-.256-.976V3.4c0-.352.085-.672.256-.96.17-.299.4-.533.688-.704.299-.17.624-.256.976-.256h7.68c.352 0 .672.085.96.256.299.17.534.405.704.704.17.288.256.608.256.96v7.68c0 .352-.085.677-.256.976a1.89 1.89 0 0 1-.704.688c-.288.17-.608.256-.96.256h-7.68Zm0-1.296h7.68a.59.59 0 0 0 .432-.176.614.614 0 0 0 .192-.448V3.4a.563.563 0 0 0-.192-.432.563.563 0 0 0-.432-.192h-7.68c-.17 0-.32.064-.448.192a.587.587 0 0 0-.176.432v7.68c0 .17.059.32.176.448a.642.642 0 0 0 .448.176ZM14.035 13V5.656c0-.352.085-.672.256-.96a2.02 2.02 0 0 1 .704-.704 1.85 1.85 0 0 1 .976-.272h5.216v1.312h-5.216c-.17 0-.32.064-.448.192a.587.587 0 0 0-.176.432V13h-1.312Zm8.22 0V.68h1.312v3.04h6.208c.352 0 .672.09.96.272.298.17.533.405.704.704.181.288.272.608.272.96v5.408c0 .352-.091.677-.272.976a2.028 2.028 0 0 1-.704.704c-.288.17-.608.256-.96.256h-7.52Zm1.952-1.312h5.568a.59.59 0 0 0 .432-.176.614.614 0 0 0 .192-.448V5.656a.563.563 0 0 0-.192-.432.563.563 0 0 0-.432-.192h-5.568a.613.613 0 0 0-.448.192.563.563 0 0 0-.192.432v5.408c0 .17.064.32.192.448a.642.642 0 0 0 .448.176ZM32.895 13V3.72h1.311V13h-1.312Zm0-11.008V.68h1.311v1.312h-1.312ZM38.175 13c-.363 0-.694-.085-.992-.256a2.068 2.068 0 0 1-.688-.704 1.934 1.934 0 0 1-.256-.976V.68h1.312v3.04h4.016v1.312H37.55v6.032c0 .17.058.32.176.448a.642.642 0 0 0 .448.176h3.392V13h-3.392Zm4.61 0V5.656c0-.352.086-.672.256-.96a2.02 2.02 0 0 1 .704-.704 1.85 1.85 0 0 1 .976-.272h5.216v1.312h-5.216c-.17 0-.32.064-.448.192a.587.587 0 0 0-.176.432V13h-1.312Zm10.03 0c-.352 0-.678-.085-.976-.256a2.218 2.218 0 0 1-.704-.704 1.933 1.933 0 0 1-.256-.976V5.656c0-.352.085-.672.256-.96.18-.299.416-.533.704-.704.298-.181.623-.272.976-.272h5.568c.362 0 .688.09.975.272.3.17.534.405.705.704.18.288.271.608.271.96v5.408c0 .352-.09.677-.272.976-.17.288-.405.523-.703.704-.288.17-.614.256-.977.256h-5.567Zm0-1.312h5.568c.17 0 .314-.059.431-.176a.614.614 0 0 0 .193-.448V5.656a.563.563 0 0 0-.192-.432.563.563 0 0 0-.432-.192h-5.569c-.17 0-.32.064-.447.192a.587.587 0 0 0-.176.432v5.408c0 .17.058.32.175.448a.642.642 0 0 0 .449.176ZM61.77 13V3.72h7.52c.352 0 .672.09.96.272.299.17.534.405.704.704.182.288.272.608.272.96V13h-1.312V5.656a.563.563 0 0 0-.192-.432.563.563 0 0 0-.432-.192h-5.568c-.17 0-.32.064-.448.192a.563.563 0 0 0-.192.432V13H61.77Z" fill="#D2D2D2"/></svg>
